X: 944
T: All Bairns Dance
R: reel
M: 4/4
K: Bminor
fbba f2ed|e2ed eff2|fbba f2d/e/f|e2de fAA2|
fbba f2ed|e2ed eff2|d’c’ba f2ed|edcA A4|
|:BABf ABFG|ede/f/g fed2|ede/f/g fedB|BABF A4|
BABf ABFG|ede/f/g fedB|ABfA F/G/FfF|F/G/Ffg fed2:|


